!!!COM: Gabriel Faure/
!!!CNT: Francais
!!!TXO: Francais
!!!OTL: Le Voyageur
!!!OPS: Op. 18
!!!ONM: No. 2
!!!LYR: Armand Silvestre
!!!ENC: Jacob Pegg
!!!YOR: Album of Twenty Songs (Vingt Me/lodies,) Volume II
!!!YOR: Edward B. Marks Music Corporation, RCA Building, Radio
!!!YOR: City, New York 20, N.Y.
!!!ODT: 1878/
!!NB: Vocal melody and text only encoded.
!!NB: First instance of melodic material only encoded.
**kern	**silbe
*clef G2	*
*k[b-e-]	*
*M3/4	*
*MM112	*
!!created: 2/5/04 19:35
!!proofed and posted: 2/6/04 14:13
!!edit time: 35 min.
=1	=1
4r	.
2r	.
=2	=2
2r	.
4r	.
=3	=3
{8.dd	{Voy-
16cc	-a-
4b-	-geur,
8a	ou\
8g	vas~
=4	=4
4.b-	~tu,
8a	mar-
4g	-chant
=5	=5
4a	dans
8a	l'or
8dd	vi-
8b-	-brant
8g	de
=6	=6
8a	la
8dd	pous-
[2dd	-sie\-
=7	=7
4dd]	|
4dd}	-re?}
4r	.
=8	=8
{8dd	{<<Je
8ee-	m'en
4ffn	vais
8ee-	au
8cc	so-
=9	=9
8.dd	-leil
16ee-	cou-
4.ff	-chant,
8ee-	pour
=10	=10
8dd	m'en-
8cc	-dor-
8b-	-mir
8g	dans
8b-	la
8a	lu-
=11	=11
2.a	-mie\-
=12	=12
4a}	-re.}
4r	.
{4dd	{Car
=13	=13
8cc	j'ai
8b-	ve/-
4.b-	-cu
8g	n'ay-
=14	=14
8.g	-ant
16f	qu'un
2f	Dieu,
=15	=15
4dd	L'as-
8cc	-tre
8b-	qui
8cc	luit
8dd	et
=16	=16
8.g	qui
16f	fe/-
4f	-con-
8f}	-de,}
8r	.
=17	=17
{4dd	{Et
8ee-	c'est
8ff	dans
8ee-	son
8cc	lin-
=18	=18
8.dd	-ceul
16gg	de
4.ff	feu
8ee-	Que
=19	=19
8dd	je
8cc	veux
8b-	m'en
8g	al-
8.b-	-ler
16a	du
=20	=20
2g	mon-
4g}	-de!>>}
=21	=21
4r	.
2r	.
=22	=22
2r	.
4r	.
=23	=23
4r	.
2r	.
=24	=24
2r	.
4r	.
=25	=25
4r	.
4r	.
{8g	{Voy-
8g	-a-
=26	=26
2a	-geur,
8a	pres-
8a	-se
=27	=27
2ee-	donc
4a	le
=28	=28
[2.b-	pas:
=29	=29
4b-]}	|}
4r	.
4r	.
=30	=30
{4a	{L'as-
4b-	-tre
4cc	vers
=31	=31
8dd	l'ho-
8dd	-ri-
4.f	-zon
8en	de/-
=32	=32
4g	-cli-
4f}	-ne...}
4r	.
=33	=33
4r	.
4r	.
{8a	{Que
8a	m'im-
=34	=34
2bn	-por-
4bn	-te,
=35	=35
4bn	j'i-
4.ff	-rai
8bn	plus
=36	=36
2.cc}	bas,}
=37	=37
4r	.
4r	.
{4a	{L'at-
=38	=38
2bn	-ten-
4bn	-dre au
=39	=39
4cc	pied
4bn	de
8cc	la
8cc	col-
=40	=40
[2.dd-	-li-
=41	=41
2dd-]	|
8dd-}	-ne.}
8r	.
*-	*-
